X: 1
T:Bonnie Doon
M:6/8
L:1/8
Q:80
C:arr. R. Bescherer, Jr.
S:Slow Air
K:HP
e|:
{g}A2{GAG}A{g}B3/2A/2B|
{g}c/2e3/2c{gBd}B3/2A/2B|
{gcd}c3/2B/2A{g}A/2f3/2e|1  !
{g}e3/2f/2A{gBd}B3/2c/2B:|2
{g}efa{g}a2c|
{gef}e2f{g}e3/2c/2A|  !
{gef}e2f{gef}e3/2c/2A|
{gef}e3/2c/2A{gef}e3/2c/2A|
{g}f3/2e/2d/2c/2B2e|  !
{AGAG}A2{g}A{gBd}B3/2A/2B|
{g}c/2e3/2c{gBd}B3/2A/2B|
{gcd}c3/2B/2A{g}A/2f3/2e{gef}e2f2a2|  !
{GdG}a6|
